X: 0
T: Das Walt Gott Vater
Z: Melody by D. Vetter, c. 1713
Z: Copyright © 2006 by Douglas D. Anderson
Z: Released To The Public Domain
L: 1/4
M: none
Q: 1/4=184
V: P1 name="Church Organ"
%%MIDI program 1 19
V: P2 name="French Horn"
%%MIDI program 2 60
V: P3 name="Trombone"
%%MIDI program 3 57
V: P4 name="Tuba"
%%MIDI program 4 58
K: Eb
[V: P1]  E2 | G2 B2 B2 G2 | E2 F2 G2 E2 | B2 B2 c2 d2 | (e d) c2 B2 B2 | G2 B2 c2 B2 | A2 G2 F2 B2 | (G A) B2 A2 (G F) | E2 F2 E2|]
[V: P2]  B,2 | E2 E2 D2 D2 | (D C) B,2 B,2 B,2 | E2 F2 (G =A) B2 | B3 =A F2 F2 | (F E/D/) E2 E2 E2 | (F B,) (B, E) (E D) F2 | E2 E2 E2 D2 | C (E2 D) E2|]
[V: P3]  G,2 | B,2 B,2 F,2 G,2 | G,2 F,2 E,2 G,2 | G,2 B,2 E2 D2 | G2 C2 D2 B,2 | B,2 B,2 (B, A,) (A, G,) | F,2 (G,3/ A,/) B,2 B,2 | B,2 B,2 C2 (B, A,) | G,2 (B,3/ A,/) G,2|]
[V: P4]  E,2 | E,2 (G,, A,,) B,,2 =B,,2 | C,2 D,2 E,2 E,2 | E,3 D, C,2 (G, F,) | E,2 F,2 B,,2 D,2 | E,2 (G, E,) C,2 E,2 | (E, D,) E,2 B,,2 D,2 | E,2 G,,2 A,,2 B,,2 | C,2 B,,2 E,2|]

